X: 1
T: Burning Down the Piper's Hut
O:
R: reel
Z: 2014 John Chambers <jc:trillian.mit.edu>
S: printed copy from Debby Knight at RJ practice
M: C|
L: 1/8
K: Em
|:\
"Em"EFGA B4 | BABc B2AG | "D"F2D2 A2D2 | FGAB A2GF |\
"Em"EFGA B3B | BABc B2AG | "D"F2D2 "(Bm)"B2^cd | F2E2 "Em"E4 :|
|:\
"Em"EFGA B2E2 | d2E2 B2AG | "D"F2D2 A2D2 | FGAB A2GF |\
"Em"EFGA B2E2 | d2E2 B2AG | "D"F2D2 "(Bm)"B2^cd | F2E2 "Em"E4 :|

%%sep 1 1 500

